app/dist/common/images/psbc.svg

<svg height="18" width="18" xmlns="http://www.w3.org/2000/svg"><path d="m0 0h18v18h-18z" fill="#00734a"/><g fill="#fff"><path d="m9.347 4h4.623l-.16 1h-4.65zm-2.77 1.598h3.017l-.179.928h-3.019zm3.551 0h3.52l-.16.928h-3.536zm-3.82 1.406h4.089l-.207.996h-4.073l.19-.996zm-2.776 1.378h5.525l-.178.927h-5.522zm-.31 1.618h5.524l-.193 1h-5.518zm6.371-1.618h3.569l-.162.927h-3.59l.182-.927zm.738 1.618h2.5l-.161 1h-2.528zm-4.878 1.474h4.083l-.18.928h-4.08zm-.292 1.526h5.145l-.188 1h-5.15z"/><path d="m6.577 5.596h.542l-1.606 8.404h-.543zm-2.501 2.786-.476 2.473h-.538l.471-2.473zm5.339-1.856h-.542l.474-2.526h.543zm-.893 1.857.535-.001-.476 2.476h-.543zm2.072-2.405-1.206 6.268h-.542l1.206-6.268zm.279 4.022-.755 4h-.543l.756-4z"/></g></svg>

<!-- by TradingView --><svg width="18" height="18" xmlns="http://www.w3.org/2000/svg"><path fill="#00734A" d="M0 0h18v18H0z"/><path d="M9.347 4h4.623l-.16 1H9.16l.187-1zM6.577 5.598h3.017l-.179.928H6.396l.181-.928zM10.128 5.598h3.52l-.16.928H9.952l.176-.928zM6.308 7.004h4.089L10.19 8H6.117l.19-.996zM3.532 8.382h5.525l-.178.927H3.357l.175-.927zM3.222 10h5.524l-.193 1H3.035l.187-1zM9.593 8.382h3.569L13 9.309h-3.59l.182-.927zM10.331 10h2.5l-.161 1h-2.528l.189-1zM5.453 11.474h4.083l-.18.928h-4.08l.177-.928zM5.161 13h5.145l-.188 1h-5.15l.193-1z" fill="#fff"/><path d="M6.577 5.596h.542L5.513 14H4.97l1.607-8.404zM4.076 8.382L3.6 10.855h-.538l.471-2.473h.543zM9.415 6.526h-.542L9.347 4h.543l-.475 2.526zM8.522 8.383l.535-.001-.476 2.476h-.543l.484-2.475zM10.594 5.978l-1.206 6.268h-.542l1.206-6.268h.542zM10.873 10l-.755 4h-.543l.756-4h.542z" fill="#fff"/></svg>
